assets/img/icons/duotone-icons/Weather/Rain#5.svg

<?xml version="1.0" encoding="UTF-8"?>
<svg width="24px" height="24px" viewBox="0 0 24 24" version="1.1" xmlns="http://www.w3.org/2000/svg" xmlns:xlink="http://www.w3.org/1999/xlink">
    <!-- Generator: Sketch 52.2 (67145) - http://www.bohemiancoding.com/sketch -->
    <title>Stockholm-icons / Weather / Rain#5</title>
    <desc>Created with Sketch.</desc>
    <g id="Stockholm-icons-/-Weather-/-Rain#5" stroke="none" stroke-width="1" fill="none" fill-rule="evenodd">
        <polygon id="Shape" points="0 0 24 0 24 24 0 24"></polygon>
        <path d="M4.30769231,13 C3.03318904,13 2,11.9926407 2,10.75 C2,9.92157288 2.76923077,8.67157288 4.30769231,7 C5.84615385,8.67157288 6.61538462,9.92157288 6.61538462,10.75 C6.61538462,11.9926407 5.58219558,13 4.30769231,13 Z M19.6923077,13 C18.4178044,13 17.3846154,11.9926407 17.3846154,10.75 C17.3846154,9.92157288 18.1538462,8.67157288 19.6923077,7 C21.2307692,8.67157288 22,9.92157288 22,10.75 C22,11.9926407 20.966811,13 19.6923077,13 Z M8.30769231,20 C7.03318904,20 6,18.9926407 6,17.75 C6,16.9215729 6.76923077,15.6715729 8.30769231,14 C9.84615385,15.6715729 10.6153846,16.9215729 10.6153846,17.75 C10.6153846,18.9926407 9.58219558,20 8.30769231,20 Z M16,20 C14.7254967,20 13.6923077,18.9926407 13.6923077,17.75 C13.6923077,16.9215729 14.4615385,15.6715729 16,14 C17.5384615,15.6715729 18.3076923,16.9215729 18.3076923,17.75 C18.3076923,18.9926407 17.2745033,20 16,20 Z" id="Combined-Shape" fill="#335EEA" opacity="0.3"></path>
        <path d="M12,13 C13.2745033,13 14.3076923,11.9926407 14.3076923,10.75 C14.3076923,9.92157288 13.5384615,8.67157288 12,7 C10.4615385,8.67157288 9.69230769,9.92157288 9.69230769,10.75 C9.69230769,11.9926407 10.7254967,13 12,13 Z" id="Oval-2-Copy" fill="#335EEA"></path>
    </g>
</svg>

<svg width="24" height="24" viewBox="0 0 24 24" xmlns="http://www.w3.org/2000/svg"><g fill="none" fill-rule="evenodd"><path d="M0 0h24v24H0z"/><path d="M4.308 13C3.033 13 2 11.993 2 10.75c0-.828.77-2.078 2.308-3.75 1.538 1.672 2.307 2.922 2.307 3.75 0 1.243-1.033 2.25-2.307 2.25zm15.384 0c-1.274 0-2.307-1.007-2.307-2.25 0-.828.769-2.078 2.307-3.75C21.231 8.672 22 9.922 22 10.75c0 1.243-1.033 2.25-2.308 2.25zM8.308 20C7.033 20 6 18.993 6 17.75c0-.828.77-2.078 2.308-3.75 1.538 1.672 2.307 2.922 2.307 3.75 0 1.243-1.033 2.25-2.307 2.25zM16 20c-1.275 0-2.308-1.007-2.308-2.25 0-.828.77-2.078 2.308-3.75 1.538 1.672 2.308 2.922 2.308 3.75 0 1.243-1.033 2.25-2.308 2.25z" fill="#335EEA" opacity=".3"/><path d="M12 13c1.275 0 2.308-1.007 2.308-2.25 0-.828-.77-2.078-2.308-3.75-1.538 1.672-2.308 2.922-2.308 3.75C9.692 11.993 10.725 13 12 13z" fill="#335EEA"/></g></svg>
